X: 16422
T: H.R.H. The Duke Of Rothesay
R: jig
M: 6/8
K: Aminor
|:a|cBA AAA|cBA e2a|f2a fec|fdB B2a|
cBA AAA|cBA e2a|f2a fec|ecA A<A:|
|:c/d/|eca a2e|fda a2f|eca ecA|cBB B<Bc/d/|
[1 eca a2e|fda a2f|eca ecA|BAA A<A:|
[2 cBA AAA|cBA e2a|f2a fec|ecA A<A||

